X: 12427
T: Fare Well
R: jig
M: 6/8
K: Gmajor
|:ded g2g|BcB d2d|G2G AGA|BGB A3|
ded g2g|BcB d2d|G2G AGA|G2G G3:|
d>ed cAc|BcB AGA|GAG BAG|dcB B2A|
d>ed cAc|BcB AGA|GAG BAG|dBG d3|
ded g2g|BcB d2d|G2G AGA|BGB A3|
ded g2g|BcB d2d|G2G AGA|G2G G3||

